dist/img/analytics/card_2.svg

<svg width="32" height="30" viewBox="0 0 32 30" fill="none" xmlns="http://www.w3.org/2000/svg">
<path d="M6.28037 22.7474C6.85685 22.7474 7.34579 22.5488 7.74718 22.1517C8.14831 21.7548 8.34888 21.2729 8.34888 20.7058C8.34888 20.1388 8.14712 19.6579 7.74362 19.2631C7.33984 18.8686 6.84972 18.6713 6.27324 18.6713C5.69677 18.6713 5.20796 18.8697 4.80683 19.2666C4.40544 19.6638 4.20474 20.1458 4.20474 20.7129C4.20474 21.2799 4.40663 21.7607 4.8104 22.1552C5.21391 22.55 5.7039 22.7474 6.28037 22.7474ZM20.6589 22.7474C21.1564 22.7474 21.5936 22.594 21.9704 22.2873C22.3473 21.9805 22.5763 21.5904 22.6577 21.1169C22.1702 21.0029 21.7065 20.8275 21.2665 20.5909C20.8268 20.354 20.4141 20.0508 20.0283 19.6812L19.4187 19.0819C19.1649 19.2599 18.9627 19.4919 18.8122 19.7782C18.6619 20.0647 18.5868 20.3751 18.5868 20.7094C18.5868 21.2753 18.7883 21.7565 19.1913 22.1529C19.594 22.5492 20.0832 22.7474 20.6589 22.7474ZM0 17.3587C0 17.1969 0.010695 17.0351 0.0320851 16.8732C0.0534752 16.7114 0.090578 16.5575 0.143393 16.4116L3.23585 7.79221C3.35389 7.43455 3.5703 7.15039 3.88508 6.93974C4.19986 6.72883 4.55028 6.62338 4.93636 6.62338H9.2021C9.5388 6.62338 9.82096 6.73545 10.0486 6.95961C10.2765 7.18377 10.3904 7.46143 10.3904 7.7926C10.3904 8.12403 10.2765 8.40156 10.0486 8.62519C9.82096 8.84909 9.5388 8.96104 9.2021 8.96104H5.33842L3.33963 14.5356H14.6106C14.9473 14.5356 15.2295 14.6477 15.4571 14.8718C15.685 15.096 15.799 15.3736 15.799 15.7048C15.799 16.0362 15.685 16.3138 15.4571 16.5374C15.2295 16.7613 14.9473 16.8732 14.6106 16.8732H2.37668V24.5455H24.559V22.9122C24.559 22.581 24.673 22.3034 24.9009 22.0792C25.1288 21.8553 25.4111 21.7434 25.7477 21.7434C26.0847 21.7434 26.3669 21.8553 26.5942 22.0792C26.8219 22.3034 26.9357 22.581 26.9357 22.9122V28.3516C26.9357 28.8095 26.7726 29.1987 26.4465 29.5192C26.1201 29.8397 25.724 30 25.2582 30C24.7921 30 24.3965 29.8397 24.0714 29.5192C23.7466 29.1987 23.5842 28.8095 23.5842 28.3516V26.8831H3.35151V28.3516C3.35151 28.8095 3.18845 29.1987 2.86231 29.5192C2.53618 29.8397 2.14007 30 1.67397 30C1.20814 30 0.812692 29.8397 0.487615 29.5192C0.162538 29.1987 0 28.8095 0 28.3516V17.3587ZM19.8053 7.1926C20.1935 7.1926 20.5191 7.06351 20.7821 6.80532C21.0451 6.54688 21.1766 6.22662 21.1766 5.84455C21.1766 5.46273 21.0454 5.14247 20.7829 4.88377C20.5201 4.62506 20.1945 4.49571 19.8061 4.49571C19.4179 4.49571 19.0923 4.62481 18.8292 4.88299C18.5662 5.14143 18.4347 5.46169 18.4347 5.84377C18.4347 6.22558 18.566 6.54585 18.8284 6.80455C19.0912 7.06325 19.4168 7.1926 19.8053 7.1926ZM22.4291 17.2208L14.5009 9.42273C14.3121 9.23701 14.1588 9.01091 14.041 8.74442C13.923 8.47766 13.864 8.2052 13.864 7.92701V2.11286C13.864 1.51338 14.0728 1.01143 14.4906 0.607014C14.9084 0.202338 15.4155 0 16.0121 0H21.9233C22.2061 0 22.4831 0.0580508 22.7543 0.174155C23.0253 0.289999 23.2551 0.44078 23.444 0.626494L31.3722 8.42454C31.7907 8.83623 32 9.33571 32 9.92299C32 10.5105 31.7907 11.01 31.3722 11.4214L25.476 17.2208C25.0577 17.6325 24.5499 17.8383 23.9526 17.8383C23.3555 17.8383 22.8477 17.6325 22.4291 17.2208ZM23.6143 15.0931C23.7057 15.183 23.82 15.2279 23.9573 15.2279C24.0944 15.2279 24.2086 15.183 24.3 15.0931L29.209 10.2647C29.3004 10.1748 29.346 10.0625 29.346 9.92766C29.346 9.7926 29.3004 9.68013 29.209 9.59026L21.972 2.47247C21.9213 2.4226 21.8654 2.38766 21.8044 2.36766C21.7434 2.34766 21.6826 2.33766 21.6218 2.33766H16.4842C16.4132 2.33766 16.3549 2.36013 16.3092 2.40506C16.2635 2.45 16.2406 2.5074 16.2406 2.57727V7.63052C16.2406 7.69026 16.2508 7.75013 16.2711 7.81013C16.2915 7.87013 16.327 7.92507 16.3777 7.97494L23.6143 15.0931Z" fill="#2453E1"/>
</svg>

<svg width="32" height="30" viewBox="0 0 32 30" fill="none" xmlns="http://www.w3.org/2000/svg"><path d="M6.28 22.747c.577 0 1.066-.198 1.467-.595a1.96 1.96 0 00.602-1.446c0-.567-.202-1.048-.605-1.443a2.026 2.026 0 00-1.47-.592c-.577 0-1.066.199-1.467.596-.402.397-.602.879-.602 1.446s.202 1.048.605 1.442c.404.395.894.592 1.47.592zm14.379 0c.497 0 .935-.153 1.311-.46.377-.306.606-.697.688-1.17a5.633 5.633 0 01-1.392-.526 5.691 5.691 0 01-1.238-.91l-.61-.6a1.979 1.979 0 00-.831 1.628c0 .566.201 1.047.604 1.444.403.396.892.594 1.468.594zM0 17.36c0-.162.01-.324.032-.486.021-.162.059-.316.111-.461l3.093-8.62c.118-.357.334-.642.65-.852a1.841 1.841 0 011.05-.317h4.266c.337 0 .619.112.847.337.228.224.341.501.341.833A1.16 1.16 0 019.202 8.96H5.338L3.34 14.536h11.27c.337 0 .62.112.847.336.228.224.342.502.342.833 0 .331-.114.609-.342.832a1.16 1.16 0 01-.846.336H2.377v7.672h22.182v-1.633c0-.331.114-.609.342-.833a1.16 1.16 0 01.847-.336c.337 0 .619.112.846.336.228.224.342.502.342.833v5.44c0 .457-.163.847-.49 1.167-.326.32-.722.481-1.188.481a1.63 1.63 0 01-1.187-.48 1.579 1.579 0 01-.487-1.168v-1.469H3.352v1.469c0 .457-.164.847-.49 1.167-.326.32-.722.481-1.188.481-.466 0-.861-.16-1.186-.48A1.578 1.578 0 010 28.351V17.359zM19.805 7.193c.389 0 .714-.13.977-.388s.395-.578.395-.96-.132-.703-.394-.961a1.337 1.337 0 00-.977-.388 1.34 1.34 0 00-.977.387 1.293 1.293 0 00-.394.96 1.338 1.338 0 001.37 1.349zM22.43 17.22l-7.928-7.798a2.169 2.169 0 01-.46-.679 2.002 2.002 0 01-.177-.817V2.113c0-.6.209-1.102.627-1.506A2.106 2.106 0 0116.012 0h5.911c.283 0 .56.058.831.174.271.116.501.267.69.452l7.928 7.799c.419.411.628.91.628 1.498s-.21 1.087-.628 1.498l-5.896 5.8a2.091 2.091 0 01-1.523.617 2.092 2.092 0 01-1.524-.617zm1.185-2.128a.47.47 0 00.343.135.469.469 0 00.343-.135l4.909-4.828a.453.453 0 00.137-.337.454.454 0 00-.137-.338l-7.237-7.118a.429.429 0 00-.168-.104.583.583 0 00-.182-.03h-5.138a.231.231 0 00-.244.24V7.63c0 .06.01.12.031.18a.42.42 0 00.107.164l7.236 7.118z" fill="#2453E1"/></svg>9.1987 2.86231 29.5192C2.53618 29.8397 2.14007 30 1.67397 30C1.20814 30 0.812692 29.8397 0.487615 29.5192C0.162538 29.1987 0 28.8095 0 28.3516V17.3587ZM19.8053 7.1926C20.1935 7.1926 20.5191 7.06351 20.7821 6.80532C21.0451 6.54688 21.1766 6.22662 21.1766 5.84455C21.1766 5.46273 21.0454 5.14247 20.7829 4.88377C20.5201 4.62506 20.1945 4.49571 19.8061 4.49571C19.4179 4.49571 19.0923 4.62481 18.8292 4.88299C18.5662 5.14143 18.4347 5.46169 18.4347 5.84377C18.4347 6.22558 18.566 6.54585 18.8284 6.80455C19.0912 7.06325 19.4168 7.1926 19.8053 7.1926ZM22.4291 17.2208L14.5009 9.42273C14.3121 9.23701 14.1588 9.01091 14.041 8.74442C13.923 8.47766 13.864 8.2052 13.864 7.92701V2.11286C13.864 1.51338 14.0728 1.01143 14.4906 0.607014C14.9084 0.202338 15.4155 0 16.0121 0H21.9233C22.2061 0 22.4831 0.0580508 22.7543 0.174155C23.0253 0.289999 23.2551 0.44078 23.444 0.626494L31.3722 8.42454C31.7907 8.83623 32 9.33571 32 9.92299C32 10.5105 31.7907 11.01 31.3722 11.4214L25.476 17.2208C25.0577 17.6325 24.5499 17.8383 23.9526 17.8383C23.3555 17.8383 22.8477 17.6325 22.4291 17.2208ZM23.6143 15.0931C23.7057 15.183 23.82 15.2279 23.9573 15.2279C24.0944 15.2279 24.2086 15.183 24.3 15.0931L29.209 10.2647C29.3004 10.1748 29.346 10.0625 29.346 9.92766C29.346 9.7926 29.3004 9.68013 29.209 9.59026L21.972 2.47247C21.9213 2.4226 21.8654 2.38766 21.8044 2.36766C21.7434 2.34766 21.6826 2.33766 21.6218 2.33766H16.4842C16.4132 2.33766 16.3549 2.36013 16.3092 2.40506C16.2635 2.45 16.2406 2.5074 16.2406 2.57727V7.63052C16.2406 7.69026 16.2508 7.75013 16.2711 7.81013C16.2915 7.87013 16.327 7.92507 16.3777 7.97494L23.6143 15.0931Z" fill="#2453E1"/>
</svg>
